X: 42966
T: Willie Coleman's
R: jig
M: 6/8
K: Gmajor
|:B3 AGE|GED GBd|edB dgb|age dBA|
B/c/dB AGE|GED GBd|edB dBA|BGG G3:|
|:g2 g edB|dgb age|g2 g edB|GBd e2 d|
g2 g edB|dgb age|d2 d gdB|AGE GBd:|

